X: 94
T: Oats and Beans
N: (Singing Game. For directions, see p. 9.)
%R: air, jig
B: "The Everyday Song Book", 1927
F: http://www.library.pitt.edu/happybirthday/pdf/The_Everyday_Song_Book.pdf
Z: 2017 John Chambers <jc:trillian.mit.edu>
M: 6/8
L: 1/8
K: Eb
% - - - - - - - - - - - - - - - - - - - - - - - - - - - - -
|: B2 B G2 E | A2 c B3 | B2 B G3 E | A2 c B2- B | e2 e
w: 1.~Oats and beans and bar-ley grow, Oats and beans and bar-ley grow;    Do you or
w: 2.~First the far-mer sows his seed, Then he stands and takes his ease,* Stamps his
%
d2 d | c- c c B2 B | A2 A G2 G | F2 F E2 z :| c2 c c2 c |
w: I or an-y-one know      How oats and beans and bar-ley grow? | 3.~Wait-ing for a
w: feet and slaps* his hand And turns him round to view his land. | ~ ~ ~ ~ |
%
B3 A3 | G2 A B2 G | A3 c3 | c2 c c2 c | B3 A2 c | _d d c
w: part-ner, wait-ing for a part-ner, wait-ing for a part-ner, So o-pen the
%
B2 A | G2 F E2 E | B2 B G G E | A2 c B2 B | B2 B G2 E |
w: ring and take one in. 4.~So now you're mar-ried you must o-bey, You must be true to
%
A2 c B2 B | e2 e d2 d | c2 c B2 B | A2 A G2 G | F2 F E2 z |]
w: all you say; You must be wise, you must be good, And help your wife to chop the wood.
% - - - - - - - - - - - - - - - - - - - - - - - - - - - - -

%%sep 1 1 500
%%sep 1 1 500

